src/assets/duotone/FilterRemove.svg

<svg width="24" height="24" viewBox="0 0 24 24"  xmlns="http://www.w3.org/2000/svg">
<path opacity="0.4" d="M5.40992 2H18.5799C19.6799 2 20.5799 2.90999 20.5799 4.01999V6.23999C20.5799 7.04999 20.0799 8.06 19.5799 8.56L15.2899 12.4C14.6899 12.91 14.2899 13.92 14.2899 14.72V19.06C14.2899 19.67 13.8899 20.47 13.3899 20.78L11.9999 21.7C10.6999 22.51 8.90992 21.6 8.90992 19.98V14.63C8.90992 13.92 8.50992 13.01 8.10992 12.51L4.31992 8.47C3.81992 7.96 3.41992 7.06001 3.41992 6.45001V4.13C3.41992 2.91 4.31992 2 5.40992 2Z" />
<path d="M16.8799 10C14.2599 10 12.1299 12.13 12.1299 14.75C12.1299 15.64 12.3799 16.48 12.8199 17.2C13.6399 18.58 15.1499 19.5 16.8799 19.5C18.6099 19.5 20.1199 18.57 20.9399 17.2C21.3799 16.49 21.6299 15.64 21.6299 14.75C21.6299 12.13 19.5099 10 16.8799 10ZM18.6799 16.52C18.5299 16.67 18.3399 16.74 18.1499 16.74C17.9599 16.74 17.7699 16.67 17.6199 16.52L16.8999 15.8L16.1499 16.55C15.9999 16.7 15.8099 16.77 15.6199 16.77C15.4299 16.77 15.2399 16.7 15.0899 16.55C14.7999 16.26 14.7999 15.78 15.0899 15.49L15.8399 14.74L15.1199 14.01C14.8299 13.72 14.8299 13.24 15.1199 12.95C15.4099 12.66 15.8899 12.66 16.1799 12.95L16.8999 13.67L17.5999 12.97C17.8899 12.68 18.3699 12.68 18.6599 12.97C18.9499 13.26 18.9499 13.74 18.6599 14.03L17.9599 14.73L18.6799 15.46C18.9799 15.75 18.9799 16.23 18.6799 16.52Z" />
</svg>

<?xml version="1.0" encoding="UTF-8"?>
<svg width="24" height="24" viewBox="0 0 24 24" xmlns="http://www.w3.org/2000/svg">
 <path d="m5.4099 2h13.17c1.1 0 2 0.90999 2 2.02v2.22c0 0.81-0.5 1.82-1 2.32l-4.29 3.84c-0.6 0.51-1 1.52-1 2.32v4.34c0 0.61-0.4 1.41-0.9 1.72l-1.39 0.92c-1.3 0.81-3.09-0.1-3.09-1.72v-5.35c0-0.71-0.4-1.62-0.8-2.12l-3.79-4.04c-0.5-0.51-0.9-1.41-0.9-2.02v-2.32c0-1.22 0.9-2.13 1.99-2.13z" opacity=".4"/>
 <path d="m16.88 10c-2.62 0-4.75 2.13-4.75 4.75 0 0.89 0.25 1.73 0.69 2.45 0.82 1.38 2.33 2.3 4.06 2.3s3.24-0.93 4.06-2.3c0.44-0.71 0.69-1.56 0.69-2.45 0-2.62-2.12-4.75-4.75-4.75zm1.8 6.52c-0.15 0.15-0.34 0.22-0.53 0.22s-0.38-0.07-0.53-0.22l-0.72-0.72-0.75 0.75c-0.15 0.15-0.34 0.22-0.53 0.22s-0.38-0.07-0.53-0.22c-0.29-0.29-0.29-0.77 0-1.06l0.75-0.75-0.72-0.73c-0.29-0.29-0.29-0.77 0-1.06s0.77-0.29 1.06 0l0.72 0.72 0.7-0.7c0.29-0.29 0.77-0.29 1.06 0s0.29 0.77 0 1.06l-0.7 0.7 0.72 0.73c0.3 0.29 0.3 0.77 0 1.06z"/>
</svg>
